X:1
T:St. Denio, 11.11.11.11
T:John Roberts, 1839
T:St. Denio, 11.11.11.11
T:Public Domain
C:John Roberts, 1839
Z:Public Domain
%%score ( 1 2 ) ( 3 4 )
L:1/8
M:3/4
K:Ab
V:1 treble 
V:2 treble 
V:3 bass 
V:4 bass 
V:1
 [EA]2 | [DF]2 D2 [FB]2 | [EG]2 E2 [CA]2 | [Ec]2 [Ec]2 (ED) | [CA]4 [EA]2 | [DF]2 D2 [FB]2 | %6
 [EG]2 E2 [CA]2 | [Ec]2 [Ec]2 (ED) | [CA]4 [EA]2 | [Ac]2 [Ac]2 [Be]2 | [Ec]2 [EA]2 [EA]2 | %11
 [Ec]2 [Fc]2 [Ee]2 | [EB]4 [Ec]2 | [FA]2 [DF]2 [FB]2 | [EG]2 E2 [CA]2 | [Ec]2 [Ac]2 [GB]2 | A4 |] %17
V:2
 x2 | x2 D2 x2 | x2 E2 x2 | x4 B2 | x6 | x2 D2 x2 | x2 E2 x2 | x4 B2 | x6 | x6 | x6 | x6 | x6 | %13
 x6 | x2 E2 x2 | x6 | A4 |] %17
V:3
 [A,,C]2 | [D,A,]2 [D,F,]2 [B,,D]2 | [E,B,]2 [E,G,]2 [F,A,]2 | [E,A,]2 [E,A,]2 [E,G,]2 | %4
 [A,,A,]4 [A,,C]2 | [D,A,]2 [D,F,]2 [B,,D]2 | [E,B,]2 [E,G,]2 [F,A,]2 | [E,A,]2 [E,A,]2 [E,G,]2 | %8
 [A,,A,]4 [A,,C]2 | [A,E]2 [A,E]2 [G,B,]2 | [A,C]2 [A,C]2 [CE][B,D] | [A,C]2 [F,A,]2 (C,D,) | %12
 [E,G,]4 [A,,A,]2 | [D,A,]2 [D,A,]2 [B,,D]2 | [E,B,]2 [E,G,]2 [F,A,]2 | [E,A,]2 [E,E]2 (ED) | %16
 [A,,C]4 |] %17
V:4
 x2 | x6 | x6 | x6 | x6 | x6 | x6 | x6 | x6 | x6 | x6 | x4 A,2 | x6 | x6 | x6 | x4 E,2 | x4 |] %17

